X: 129
T: Gentleman from Clare (Jimmy Hogan's) (jig)
N: 070382
C: BB
M: 6/8
Q: 340
L: 1/8
R: jig
K: G
D|"G"GBd "Em"B2 A | "G"GBd "Am"cBA | "G"GBd gfg | "Am7"eag "D"fed |
"G"GBd "Em"B2 A | "G"GBd "Am"cBA | "G"Bdg "D7"fdc | "G"BGF "G"G2 :|
d|"Em7"ede "D"fdf | "G"gdc "Em"BAG | "G"BGG dGG | "Em7"edB "D"d^cd |
"Em7"ede "D"fdf | "G"gab "C"gfe | "G"dcB "D7"Adc | "G"BGF "G"G2 :| 
%%%%%%%%%%%%%%%%%%%%%%%%%%%%%%%%%%%%%%%%%%%
